icons/banking/icon_payment-to-company_xxl_black.svg

<svg width="48" height="48" viewBox="0 0 48 48" xmlns="http://www.w3.org/2000/svg"><g fill="none" fill-rule="evenodd"><path d="M0 0h48v48H0z"/><path d="M2.579 46H45.5a.5.5 0 0 0 .5-.5V23.436a.5.5 0 0 0-.5-.5H29V2.5a.502.502 0 0 0-.697-.459L2.382 13.138a.5.5 0 0 0-.303.459V45.5a.5.5 0 0 0 .5.5zM29 23.936h16V45H29V23.936zM3.079 13.927L28 3.258V45H3.079V13.927z" fill="#0B1F35"/><path d="M34.5 24a.5.5 0 0 0 .5-.5v-7a.5.5 0 0 0-1 0v7a.5.5 0 0 0 .5.5zM35 29h4v6h-4zM9 30h4v6H9zM9 19h4v6H9zM17 14h4v6h-4zM39.5 24a.5.5 0 0 0 .5-.5v-3a.5.5 0 0 0-1 0v3a.5.5 0 0 0 .5.5z" fill="#0B1F35" opacity=".3"/></g></svg>

<?xml version="1.0" encoding="UTF-8"?>
<svg width="48px" height="48px" viewBox="0 0 48 48" version="1.1" xmlns="http://www.w3.org/2000/svg" xmlns:xlink="http://www.w3.org/1999/xlink">
    <!-- Generator: Sketch 48.2 (47327) - http://www.bohemiancoding.com/sketch -->
    <title>icon_payment-to-company_xxl_black</title>
    <desc>Created with Sketch.</desc>
    <defs></defs>
    <g id="mobile" stroke="none" stroke-width="1" fill="none" fill-rule="evenodd" transform="translate(-1388.000000, -138.000000)">
        <g id="Headings" transform="translate(64.000000, 77.000000)">
            <g id="icon_payment-to-company__xxl__white" transform="translate(1324.000000, 61.000000)">
                <g id="ungroup">
                    <rect id="Rectangle-path" x="0" y="0" width="48" height="48"></rect>
                    <g id="a1" opacity="0.4"></g>
                    <path d="M2.579,46 L28.5,46 L45.5,46 C45.776,46 46,45.776 46,45.5 L46,23.436 C46,23.16 45.776,22.936 45.5,22.936 L29,22.936 L29,2.5 C29,2.332 28.916,2.175 28.775,2.083 C28.634,1.991 28.457,1.975 28.303,2.041 L2.382,13.138 C2.198,13.217 2.079,13.397 2.079,13.597 L2.079,45.5 C2.079,45.776 2.302,46 2.579,46 L2.579,46 Z M29,23.936 L45,23.936 L45,45 L29,45 L29,23.936 L29,23.936 Z M3.079,13.927 L28,3.258 L28,23.436 L28,45 L3.079,45 L3.079,13.927 L3.079,13.927 Z" id="Shape" fill="#0B1F35"></path>
                    <path d="M34.5,24 C34.776,24 35,23.776 35,23.5 L35,16.5 C35,16.224 34.776,16 34.5,16 C34.224,16 34,16.224 34,16.5 L34,23.5 C34,23.776 34.224,24 34.5,24 L34.5,24 Z" id="Shape" fill="#0B1F35" opacity="0.3"></path>
                    <rect id="Rectangle-path" fill="#0B1F35" opacity="0.3" x="35" y="29" width="4" height="6"></rect>
                    <rect id="Rectangle-path" fill="#0B1F35" opacity="0.3" x="9" y="30" width="4" height="6"></rect>
                    <rect id="Rectangle-path" fill="#0B1F35" opacity="0.3" x="9" y="19" width="4" height="6"></rect>
                    <rect id="Rectangle-path" fill="#0B1F35" opacity="0.3" x="17" y="14" width="4" height="6"></rect>
                    <path d="M39.5,24 C39.776,24 40,23.776 40,23.5 L40,20.5 C40,20.224 39.776,20 39.5,20 C39.224,20 39,20.224 39,20.5 L39,23.5 C39,23.776 39.224,24 39.5,24 L39.5,24 Z" id="Shape" fill="#0B1F35" opacity="0.3"></path>
                </g>
            </g>
        </g>
    </g>
</svg>
